!!!!SEGMENT: pl-wtm--r-243-n_noskowski-zygmunt--krew-ktora-do-serca-zbiega.krn
!!!cenid: 18xx:2144
!!!COM: Noskowski, Zygmunt
!!!COM-rismID: pe106604
!!!CDT: 1846/05/02-1909/07/23
!!!CNT: Polish
!!!OTL: Krew, która do serca zbiega
!!!PDT:
!!!AGN: Secular
!!!SMS-siglum: PL-Wtm
!!!SMS-shelfmark: R 243/N
!!!SMS-shelfwork: W
!!!SMS-variant:
!!!SMS-altvar:
!!!NIFC-rismSourceID: 1001101568
!!!NIFC-rismChildID: 1001101568
!!!NIFC-islandoraID: pl-wtm:49864
!!!URL-pdf-islandora: https://repozytorium.nifc.pl/islandora/object/pl-wtm%3A49864/datastream/PDF/view
!!!URL-scan: https://polish.musicsources.pl/pl/lokalizacje/galeria/rekopisy/7839/1 @EN{Scan on Polish Music Sources Website} @PL{Skany w portalu Dziedzictwo Muzyki Polskiej w otwartym dostępie}
!!!ONB-nifc:
!!!OMD: Maestoso.
!!!AIN: 1 bass 1 tenor
!!!key:
**kern	**text	**mod-text	**dynam	**mod-dynam	**kern	**text	**dynam
*part2	*part2	*part2	*part2	*part2	*part1	*part1	*part1
*staff2	*staff2	*staff2	*	*	*staff1	*staff1	*
*Ibass	*	*	*	*	*Itenor	*	*
*I"Basso	*	*	*	*	*I"Tenore	*	*
*I'B.	*	*	*	*	*I'T.	*	*
*mI'B	*	*	*	*	*mI'T	*	*
*clefF4	*	*	*	*	*clefGv2	*	*
*k[b-e-a-]	*	*	*	*	*k[b-e-a-]	*	*
*E-:	*	*	*	*	*E-:	*	*
*M3/4	*	*	*	*	*M3/4	*	*
*>[A,A,B,B,C]	*	*	*	*	*>[A,A,B,B,C]	*	*
=1	=1	=1	=1	=1	=1	=1	=1
*^	*	*	*	*	*^	*	*
*>A	*>A	*	*	*	*	*>A	*>A	*	*
!	!	!	!	!LO:DY:b:rj	!LO:DY:b:rj	!	!	!	!LO:DY:b:rj
4G/	4E-\	.	Krew,	f	f	4e-/	4B-\	Krew,	f
4F/	4E-\	.	któ-	.	.	(>8d/L	4An\	któ-	.
.	.	.	.	.	.	8c/J)	.	.	.
8F/	8E-\	.	-ra	.	.	8Bn/	8A\	-ra	.
8F/	8E-\	.	do	.	.	8c/	8A\	do	.
=2	=2	=2	=2	=2	=2	=2	=2	=2	=2
8.F/	8.D\	.	ser-	.	.	8.f/	8.An\	ser-	.
16F/	16C\	.	-ca	.	.	16e-/	16A\	-ca	.
4F/	4BB-\	.	zbie-	.	.	4e-/	4B-\	zbie-	.
8F/	8BB-\	.	-ga,	.	.	8d/	8B-\	-ga,	.
8E-/	8C\	.	To	.	.	8c/	8A-X\	To	.
=3	=3	=3	=3	=3	=3	=3	=3	=3	=3
(>8F/L	(<8D\L	.	ję-	.	.	(>8c/L	(<8A-\L	ję-	.
8G/J)	8E-\J)	.	.	.	.	8B-/J)	8G\J)	.	.
8.F#X/	8.E-\	.	-zyk,	.	.	8.An/	8.F#X\	-zyk,	.
16G/	16E-\	.	na-	.	.	16B-/	16G\	na-	.
8G/	8C\	.	-ro-	.	.	8e-/	8B-\	-ro-	.
(<16B-/LL	8D\	.	-du	.	.	8f/	8B-\	-du	.
16A-/JJ)	.	.	.	.	.	.	.	.	.
!!LO:LB:g=original
=4	=4	=4	=4	=4	=4	=4	=4	=4	=4
2.G/	2.E-\	.	skarb;	.	.	2.g/	2.B-\	skarb;	.
=5	=5	=5	=5	=5	=5	=5	=5	=5	=5
4G/	4F\	.	Bi-	.	.	4a-/	4Bn\	Bi-	.
4.G/	4.E-\	.	-cie	.	.	4.g/	4.c\	-cie	.
8G/	8BBn\	.	co	.	.	8f/	8d\	co	.
=6	=6	=6	=6	=6	=6	=6	=6	=6	=6
4G/	(>8D\L	.	zeń	.	.	(>8d/L	(<8Bn\L	zeń	.
.	8C\J)	.	.	.	.	8e-/J)	8c\J)	.	.
8G/	8F\	.	się	.	.	8Bn/	8G\	się	.
8G/	8E-\	.	roz-	.	.	8c/	8G\	roz-	.
8G/	8D\	.	-le-	.	.	8d/	8B\	-le-	.
8G/	8C\	.	-ga,	.	.	8e-/	8c\	-ga,	.
=7	=7	=7	=7	=7	=7	=7	=7	=7	=7
4An/	4F\	.	To	.	.	4e-/	4c\	To	.
4A/	4FF\	.	pieśń-	.	.	4g/	4e-\	pieśń-	.
4B-X/	4GG\	.	-stróż,	.	.	4f/	4d\	-stróż,	.
=8	=8	=8	=8	=8	=8	=8	=8	=8	=8
8G/	8AA-\	.	świa-	.	.	8e-/	8c\	świa-	.
16.F/	16.BB-\	.	-dek	.	.	16.d/	16.B-\	-dek	.
32F/	32E-\	.	i	.	.	32c/	32An\	i	.
2F^^>/	(<4E-^^>\	.	skarb.	.	.	(>4c^^>/	(<4A\	skarb.	.
.	4D\)	.	.	.	.	4B-/)	4B-\)	.	.
!!LO:LB:g=original
=9:|!|:	=9:|!|:	=9:|!|:	=9:|!|:	=9:|!|:	=9:|!|:	=9:|!|:	=9:|!|:	=9:|!|:	=9:|!|:
*>B	*>B	*	*	*	*	*>B	*>B	*	*
!	!	!	!	!LO:DY:b:rj	!LO:DY:b:rj	!	!	!	!LO:DY:b:rj
4B-/	4B-\	.	Kto	f	f	4B-/	4B-\	Kto	f
4A-X/	4BB-\	.	nam	.	.	4f/	4d\	nam	.
8G/	8C\	.	bi-	.	.	8e-/	8c\	bi-	.
8F/	8D\	.	-cia	.	.	8d/	8B-\	-cia	.
=10	=10	=10	=10	=10	=10	=10	=10	=10	=10
8.F/	8.E-\	.	te	.	.	8.c/	8.A-\	te	.
16F/	16E-\	.	ży-	.	.	16d/	16A-\	ży-	.
4F/	4E-\	.	-wot-	.	.	4c/	4A-\	-wot-	.
8F/	8D\	.	-ne	.	.	8B-/	8F\	-ne	.
8D/	8BB-\	.	W har-	.	.	8A-/	8F\	W har-	.
=11	=11	=11	=11	=11	=11	=11	=11	=11	=11
!	!LO:TX:a:t=P:problem=note position	!	!	!	!	!	!	!	!
(>8E-/L	4E-\	.	-mo-	.	.	(>8G/L	(<8G\L	-mo-	.
8F/J)	.	.	.	.	.	8A-/J)	8A-\J)	.	.
8G/	8E-\	.	-nii	.	.	8c/	8c\	-nii	.
8G/	8E-\	.	przy-	.	.	8B-/	8B-\	przy-	.
8F/	8C\	.	-o-	.	.	8e-/	8An\	-o-	.
8F/	8F\	.	-dział	.	.	8c/	8A\	-dział	.
=12	=12	=12	=12	=12	=12	=12	=12	=12	=12
2.F/	2.BB-\	.	cud,	.	.	(>4e-/	2.B-\	cud,	.
.	.	.	.	.	.	2d/)	.	.	.
!!LO:LB:g=original
=13	=13	=13	=13	=13	=13	=13	=13	=13	=13
!LO:TX:a:t=P:problem=note position	!	!	!	!	!	!	!	!	!
4G/	(<8G\L	.	O,	.	.	4d/	4Bn\	O,	.
.	8F\J)	.	.	.	.	.	.	.	.
4.G/	4.E-\	.	te-	.	.	4.g/	4.B\	te-	.
8G/	8D\	.	-mu	.	.	8f/	8B\	-mu	.
=14	=14	=14	=14	=14	=14	=14	=14	=14	=14
(>8F/L	(>8GG\L	.	dzię-	.	.	(>8a-/L	(<8Bn\L	dzię-	.
8E-/J)	8AAn\J)	.	.	.	.	8g/J)	8c\J)	.	.
8D/	8BBn\	.	-ki	.	.	8f/	8d\	-ki	.
8E-/	8C\	.	sto-	.	.	8e-/	8c\	sto-	.
8G/	8E-\	.	-krot-	.	.	8c/	8c\	-krot-	.
8G/	8G\	.	-ne	.	.	8d/	8B\	-ne	.
=15	=15	=15	=15	=15	=15	=15	=15	=15	=15
4.G/	4.C\	.	Wiecz-	.	.	4.e-/	4.c\	Wiecz-	.
8G/	8E-\	.	-nie	.	.	8c/	8c\	-nie	.
8A-/	8F\	.	czcić	.	.	8g/	8e-\	czcić	.
8An/	8F\	.	go	.	.	8f/	8d\	go	.
=16	=16	=16	=16	=16	=16	=16	=16	=16	=16
8.An/	8.BB-\	.	bę-	.	.	8.e-/	8.c\	bę-	.
16F/	16BB-\	.	-dzie	.	.	16f/	16An\	-dzie	.
4.F/	4.BB-\	.	lud.	.	.	4.d/	4.B-\	lud.	.
8D/	8AA-X\	.	W ży-	.	.	8B-/	8F\	W ży-	.
!!LO:LB:g=original
=17	=17	=17	=17	=17	=17	=17	=17	=17	=17
8E-/	8GG\	.	-wot-	.	.	8e-/	8B-\	-wot-	.
8E-/	8GG\	.	-ność	.	.	8e-/	8B-\	-ność	.
4E-/	4AA-\	.	wie-	.	.	(>8d/L	(<8B-\L	wie-	.
.	.	.	.	.	.	8c/J)	8A-\J)	.	.
8E-/	8AA-\	.	-rzyć	.	.	8Bn/	8G\	-rzyć	.
8E-/	8AA-\	.	przy-	.	.	8c/	8A-\	przy-	.
=18	=18	=18	=18	=18	=18	=18	=18	=18	=18
4F/	4AAn\	.	-mu-	.	.	(>8.f/L	4c\	-mu-	.
.	.	.	.	.	.	16e-/Jk)	.	.	.
4F/	4BB-\	.	-sza	.	.	4e-/	4B-\	-sza	.
8F/	8BB-\	.	Na-	.	.	8d/	8B-\	Na-	.
8E-/	8C\	.	-wet	.	.	8c/	8A-X\	-wet	.
=19	=19	=19	=19	=19	=19	=19	=19	=19	=19
(>8F/L	(<8D\L	.	i	.	.	(>8c/L	(<8A-\L	i	.
8G/J)	8E-\J)	.	.	.	.	8B-/J)	8G\J)	.	.
8F#X/	8E-\	.	wro-	.	.	8An/	8F#X\	wro-	.
8G/	8E-\	.	-gi	.	.	8B-/	8G\	-gi	.
(<8G/L	(>8C\L	.	ten	.	.	(>8e-/L	(<8c\L	ten	.
8B-/J)	8BB-\J)	.	.	.	.	8f/J)	8d\J)	.	.
=20	=20	=20	=20	=20	=20	=20	=20	=20	=20
2.B-/	2.E-\	.	jęk	.	.	2.g/	2.e-\	jęk	.
=21	=21	=21	=21	=21	=21	=21	=21	=21	=21
4c/	4A-\	.	Cześć	.	.	4g/	4e-\	Cześć	.
!	!	!	!	!LO:hP:b	!LO:hP:b	!	!	!	!LO:HP:a
4.c/	4.A-\	.	więc	<	<	4.f/	4.e-\	więc	<
8c/	8G\	.	pa-	[	[	8g/	8e-\	pa-	[
!!LO:LB:g=original
=22	=22	=22	=22	=22	=22	=22	=22	=22	=22
!	!	!	!	!LO:DY:b:rj	!LO:DY:b:rj	!	!	!	!LO:DY:b:rj
4c/	4F\	.	-mię-	ff	ff	(>8b-/L	4e-\	-mię-	ff
.	.	.	.	.	.	8a-/J)	.	.	.
8B-/	8BB-\	.	-ci	.	.	8g/	8d\	-ci	.
8A-/	8BB-\	.	Ju-	.	.	8f/	8d\	Ju-	.
8G/	8BBn\	.	-lju-	.	.	8g/	8d\	-lju-	.
8G/	8C\	.	-sza,	.	.	8e-/	8c\	-sza,	.
=23	=23	=23	=23	=23	=23	=23	=23	=23	=23
4F/	4AA-\	.	Bo	.	.	4f/	4c\	Bo	.
8F/	8AAn\	.	on	.	.	8e-/	8c\	on	.
8F/	8BB-X\	.	łzie	.	.	8d/	8B-\	łzie	.
8E-/	8C\	.	na-	.	.	8c/	8An\	na-	.
8F/	8FF\	.	-szej	.	.	8d/	8A\	-szej	.
=24	=24	=24	=24	=24	=24	=24	=24	=24	=24
(>8G/L	4BB-\	.	dał	.	.	(>8B-/L	(<8B-\L	dał	.
8B-/J)	.	.	.	.	.	8g/J)	8e-\J)	.	.
(>4A-^^>/	(<4BB-\	.	dźwięk.	.	.	(>4f^^>/	(<4d\	dźwięk.	.
8G/)	8E-\)	.	.	.	.	8e-/)	8e-\)	.	.
8ryy	8r	.	.	.	.	8r	8ryy	.	.
=25:|!	=25:|!	=25:|!	=25:|!	=25:|!	=25:|!	=25:|!	=25:|!	=25:|!	=25:|!
*>C	*>C	*	*	*	*	*>C	*>C	*	*
8.A-/	8.A-\	.	On	.	.	8.c/	8.c\	On	.
16A-/	16A-\	.	łzie	.	.	16c/	16c\	łzie	.
4A-/	4A-\	.	na-	.	.	4e-/	4c\	na-	.
8A-/	8A-\	.	-szej	.	.	8c/	8c\	-szej	.
8A-/	8F\	.	dał	.	.	8d/	8c\	dał	.
!!LO:PB:g=original
=26	=26	=26	=26	=26	=26	=26	=26	=26	=26
2.G/	2.C\	.	dźwięk.	.	.	2.e-/	2.c\	dźwięk.	.
=27	=27	=27	=27	=27	=27	=27	=27	=27	=27
8.A-/	8.A-\	.	On	.	.	8.e-/	8.c\	On	.
16A-/	16A-\	.	łzie	.	.	16e-/	16c\	łzie	.
4c/	4A-\	.	na-	.	.	4f/	4c\	na-	.
8c/	8A-\	.	-szej	.	.	8e-/	8c\	-szej	.
8c/	8A-\	.	dał	.	.	8f/	8c\	dał	.
=28	=28	=28	=28	=28	=28	=28	=28	=28	=28
2.Bn/	2.G\	.	dźwięk	.	.	2.g/	2.d\	dźwięk	.
=29	=29	=29	=29	=29	=29	=29	=29	=29	=29
8.c/	8.C\	.	Cześć	.	.	8.g/	8.en\	Cześć	.
16G/	16C\	.	mu	.	.	16en/	16c\	mu	.
2G/	2C\	.	cześć	.	.	2en/	2c\	cześć	.
!!LO:LB:g=original
=30	=30	=30	=30	=30	=30	=30	=30	=30	=30
8.G/	8.C\	.	Cześć	.	.	8.en/	8.c\	Cześć	.
16A-X/	16F\	.	mu	.	.	16f/	16c\	mu	.
4F/	4F\	.	cześć	.	.	4f/	4c\	cześć	.
4c/	4AA-\	.	ach,	.	.	4a-/	4f\	ach,	.
=31	=31	=31	=31	=31	=31	=31	=31	=31	=31
(>4B-/	2BB-\	.	cześć	.	.	(>4g/	(<4e-X\	cześć	.
4A-/)	.	.	.	.	.	4f/)	4d\)	.	.
4A-/	4BB-\	.	mu	.	.	4d/	4B-\	mu	.
=32	=32	=32	=32	=32	=32	=32	=32	=32	=32
2.G/	2.E-;<\	.	cześć	.	.	2.e-;>/	2.B-\	cześć	.
*v	*v	*	*	*	*	*	*	*	*
*	*	*	*	*	*v	*v	*	*
==	==	==	==	==	==	==	==
*-	*-	*-	*-	*-	*-	*-	*-
!!!system-decoration: {(s1,s2)}
!!!RDF**kern: > = above
!!!RDF**kern: < = below
!!!RDF**kern: | = vertical stroke
!!!RDF**kern: N = linked
!!!RDF**kern: i = editorial accidental
!!!ENC-modern: Leszek Kubiak
!!!END-modern: 2022-08-17
!!!EED: Wojciech Jakubiak-Danek
!!!EEV: 2021-07-10
!!!ENC: Andrzej Gręziak
!!!END: 2021-05-24
!!!filter-modern: sic -sq | autostem -r | shed -e "s/LO:DY:(a|b|rj)/LO:dy:$1/L" | shed -e "s/TX(.*):t=P:/tx$1:t=P:/LG" | modori -m
!!!YEC: Copyright 2022 Narodowy Instytut Fryderyka Chopina (https://polishscores.org)
!!!YEM: License CC-BY-4.0 (https://creativecommons.org/licenses/by/4.0)
